X: 108
T: Cantantibus organis – Allegro moderato
C: Franciszek Walczyński
%%abc-version 2.0
%%abcx-abcm2ps-target-version 5.9.1 (29 Sep 2008)
%%abc-creator hum2abc beta
%%abcx-conversion-date 2021/10/04 07:38:40
%%abc-edited-by Kamil Watkowski
%%abcx-initial-encoding-date 2021-08-09
%%humdrum-veritas 3078727238
%%humdrum-veritas-data 100236956
%%linebreak <none>
%%barnumbers 0
L: 1/8
M: C|
N: Derived from pl-kozmzk--mzk-m-346--009_walczynski-franciszek--cantantibus-organis-allegro-moderato.krn
%%staves {1 2}
V: 1 clef=treble
V: 2 clef=bass
K: G
[V:1] z8 & z8 | 
[V:2] z8 & z G,A,B, DCG,A, | 
[V:1] z8 & z8 | 
[V:2] z8 & B,A,G,E, D,C,B,,A,, | 
[V:1] z8 & z G,A,B, DCG,A, | 
[V:2] z2=F,2E,2_E,2 & G,,8- | 
[V:1] z8 & B,CB,A,D4- | 
[V:2] D,E,D,^C,F,4 & G,,4D,E,D,=C, | 
[V:1] z GAB dcGA & D zz2z4 | 
[V:2] G, z=F2E2_E2 & B,, zz2z4 | 
[V:1] B4-BA^GA & G4F4 | 
[V:2] D4B,4- & z D,^C,D,^D,4 | 
[V:1] G^GAB dcBA & E8- | 
[V:2] B,2A,^G,A,4 & E,=D,C,B,,A,,2B,,C, | 
[V:1] G4BAGF & E4^D4 | 
[V:2] B,^A,B,G,F,2B,=A, & B,,8 | 
[V:1] E zz2z4 & E EGA BGFE | 
[V:2] G, zz2z4 & E, zz2z4 | 
[V:1] z8 & F4EFG^G | 
[V:2] ^D4B,4 & z =CB,A, G,^D,E,=D, | 
[V:1] z Acd ecBA & A zz2z4 | 
[V:2] A, zz2z4 & C, zz2z4 | 
[V:1] B4ABcA & ^G4E4 | 
[V:2] z =FED C^G,A,C & z8 | 
[V:1] G6F2 & D2E2D3=C | 
[V:2] B,2_B,2A,4 & z2^C,2D,2D,,2 | 
[V:1] G8- & B,B,A,B, DCG,A, | 
[V:2] G,2=F,2E,2_E,2 & G,,8- | 
[V:1] G8- & B,CB,A, CDCG,/A,/ | 
[V:2] D,E,D,C, D,=F,E,_E, & G,,8- | 
[V:1] !fermata!G8 & B,8 |]  
[V:2] D,8 & !fermata!G,,8 |]  


